public/shapes/characters/532.svg

<?xml version="1.0" encoding="UTF-8"?>
<svg width="70.45px" height="104.85px" version="1.1" xmlns="http://www.w3.org/2000/svg" xmlns:cc="http://creativecommons.org/ns#" xmlns:dc="http://purl.org/dc/elements/1.1/" xmlns:rdf="http://www.w3.org/1999/02/22-rdf-syntax-ns#">
 <metadata>
  <rdf:RDF>
   <cc:Work rdf:about="">
    <dc:format>image/svg+xml</dc:format>
    <dc:type rdf:resource="http://purl.org/dc/dcmitype/StillImage"/>
    <dc:title/>
   </cc:Work>
  </rdf:RDF>
 </metadata>
 <path d="m10.485 103.12 49.711 0.12335 7.0311-27.384-12.459-30.592 8.8814-10.115-0.98682-11.102-12.829-8.7581-2.8371-9.1281-11.965-4.194-14.186 4.8108-6.0443 11.472-8.388 6.4144-0.37006 12.705 10.485 8.6347-12.212 28.741z" fill="#fff"/>
 <g transform="translate(35.2 52.4)" fill-rule="evenodd">
  <path d="m-2.45 23.35v-9.25h-23.05q-1.3 4.55-1.75 9.25h24.8m29.15 0q-0.45-4.9-1.8-9.25h-24.9v9.25h26.7m-26.7 19.25v5.75h22.65q1.3-2.75 2.2-5.75h-24.85m-2.45 5.75v-5.75h-22.95q0.9 3 2.2 5.75h20.75m0-14.4v-8.15h-25l-0.05 2.45 0.3 5.7h24.75m2.45-8.15v8.15h26.65l0.3-5.7-0.05-2.45h-26.9m12.65-30.4h-12.65v16.2h24.1q-3.85-10.6-11.45-16.2m-15.1 16.2v-16.2h-10.8q-3.35 2.55-6.2 6.35-3.2 4.3-5.2 9.85h22.2m7.25-49.65q0 0.7 0.65 1.15 0.6 0.45 1.5 0.45t1.55-0.45q0.6-0.45 0.6-1.15 0-0.65-0.6-1.1-0.65-0.45-1.55-0.45t-1.5 0.45q-0.65 0.45-0.65 1.1m-12.35-9.15q-3.05 1.35-5.2 3.7h23.5q-2.2-2.35-5.25-3.7-3.1-1.35-6.5-1.35-3.45 0-6.55 1.35m-3.35 7.55q-0.65 0.45-0.65 1.1t0.65 1.15q0.65 0.45 1.5 0.45 0.9 0 1.55-0.45 0.6-0.45 0.6-1.15 0-0.65-0.6-1.1-0.65-0.45-1.55-0.45-0.85 0-1.5 0.45m-5.8 5.95-1.25 0.35q-4.55 1.3-7.35 4.65t-2.8 7.55q0 5.25 4.25 9 4.2 3.75 10.2 3.75h25.9q6 0 10.25-3.75 4.2-3.75 4.2-9 0-4.3-3-7.75-2.95-3.4-7.7-4.55l-1.05-0.25h-31.65m-16.45-3.55q1.45-2.9 6.6-3-3.1-1.1-6.2-2.95l-2.45-1.6q4.95-3.65 10.2-1.6 3.4 1.3 6.4 4.8l0.85-1.5v-0.4h0.25q2.6-4.1 6.9-6.45 4.45-2.45 9.6-2.45 5.1 0 9.55 2.45 4.3 2.4 6.9 6.45h0.25v0.4q1.8 2.8 2.4 6.3 5.55 1.7 9 6t3.45 9.65q0 4.2-2.2 7.85-2.15 3.55-5.85 5.85 5.95 5.95 9.3 14.35 3.45 8.65 3.45 18.35 0 7.6-2.2 14.7-2.1 6.85-6 12.5h-6.65l0.05-0.1h-20.45v0.1h-2.45v-0.1h-18.6l0.05 0.1h-5.95q-3.9-5.65-6-12.5-2.2-7.1-2.2-14.7 0-9.45 3.3-17.95 3.2-8.2 8.9-14.2-4.1-2.2-6.5-5.95-2.5-3.85-2.5-8.3 0-4.55 2.55-8.45 2.5-3.8 6.85-6l-7.25-0.4-3.35-1.25"/>
  <path d="m11.75-21q0.5-0.2 1 0l0.7 0.65 0.05 1-0.7 0.7q-4.25 1.95-9.6 2.55-10.6 1.3-18.25-4.2-1.5 2-3.85 3.15l-0.95 0.1-0.75-0.65-0.05-1 0.65-0.7q3.1-1.55 4.05-4.6l0.3-2.9q-0.05-0.55 0.25-0.95 0.35-0.4 0.85-0.5 0.55-0.05 0.95 0.25 0.45 0.35 0.5 0.85 0.3 2.15-0.7 4.7 6.9 5.1 16.85 3.85 5-0.6 8.7-2.3"/>
 </g>
</svg>

<?xml version="1.0" encoding="UTF-8" standalone="no"?>
<svg xmlns:xlink="http://www.w3.org/1999/xlink" height="104.85px" width="70.45px" xmlns="http://www.w3.org/2000/svg">
  <g transform="matrix(1.0, 0.0, 0.0, 1.0, 35.2, 52.4)">
    <path d="M-1.0 -48.55 Q2.4 -48.55 5.5 -47.2 8.55 -45.85 10.75 -43.5 L-12.75 -43.5 Q-10.6 -45.85 -7.55 -47.2 -4.45 -48.55 -1.0 -48.55" fill="#ffffff" fill-rule="evenodd" stroke="none"/>
    <path d="M-7.25 -38.55 Q-7.25 -37.85 -7.85 -37.4 -8.5 -36.95 -9.4 -36.95 -10.25 -36.95 -10.9 -37.4 -11.55 -37.9 -11.55 -38.55 -11.55 -39.2 -10.9 -39.65 -10.25 -40.1 -9.4 -40.1 -8.5 -40.1 -7.85 -39.65 -7.25 -39.2 -7.25 -38.55" fill="#ffffff" fill-rule="evenodd" stroke="none"/>
    <path d="M9.1 -38.05 Q9.1 -37.35 8.5 -36.9 7.85 -36.45 6.95 -36.45 6.05 -36.45 5.45 -36.9 4.8 -37.35 4.8 -38.05 4.8 -38.7 5.45 -39.15 6.05 -39.6 6.95 -39.6 7.85 -39.6 8.5 -39.15 9.1 -38.7 9.1 -38.05" fill="#ffffff" fill-rule="evenodd" stroke="none"/>
    <path d="M-2.45 23.35 L-2.45 14.1 -25.5 14.1 Q-26.8 18.65 -27.25 23.35 L-2.45 23.35 M26.7 23.35 Q26.25 18.45 24.9 14.1 L0.0 14.1 0.0 23.35 26.7 23.35 M0.0 42.6 L0.0 48.35 22.65 48.35 Q23.95 45.6 24.85 42.6 L0.0 42.6 M-2.45 48.35 L-2.45 42.6 -25.4 42.6 Q-24.5 45.6 -23.2 48.35 L-2.45 48.35 M-2.45 33.95 L-2.45 25.8 -27.45 25.8 -27.5 28.25 -27.2 33.95 -2.45 33.95 M0.0 25.8 L0.0 33.95 26.65 33.95 26.95 28.25 26.9 25.8 0.0 25.8 M12.65 -4.6 L0.0 -4.6 0.0 11.6 24.1 11.6 Q20.25 1.0 12.65 -4.6 M-2.45 11.6 L-2.45 -4.6 -13.25 -4.6 Q-16.6 -2.05 -19.45 1.75 -22.65 6.05 -24.65 11.6 L-2.45 11.6 M4.8 -38.05 Q4.8 -37.35 5.45 -36.9 6.05 -36.45 6.95 -36.45 7.85 -36.45 8.5 -36.9 9.1 -37.35 9.1 -38.05 9.1 -38.7 8.5 -39.15 7.85 -39.6 6.95 -39.6 6.05 -39.6 5.45 -39.15 4.8 -38.7 4.8 -38.05 M-7.55 -47.2 Q-10.6 -45.85 -12.75 -43.5 L10.75 -43.5 Q8.55 -45.85 5.5 -47.2 2.4 -48.55 -1.0 -48.55 -4.45 -48.55 -7.55 -47.2 M-10.9 -39.65 Q-11.55 -39.2 -11.55 -38.55 -11.55 -37.9 -10.9 -37.4 -10.25 -36.95 -9.4 -36.95 -8.5 -36.95 -7.85 -37.4 -7.25 -37.85 -7.25 -38.55 -7.25 -39.2 -7.85 -39.65 -8.5 -40.1 -9.4 -40.1 -10.25 -40.1 -10.9 -39.65 M-16.7 -33.7 L-17.95 -33.35 Q-22.5 -32.05 -25.3 -28.7 -28.1 -25.35 -28.1 -21.15 -28.1 -15.9 -23.85 -12.15 -19.65 -8.4 -13.65 -8.4 L12.25 -8.4 Q18.25 -8.4 22.5 -12.15 26.7 -15.9 26.7 -21.15 26.7 -25.45 23.7 -28.9 20.75 -32.3 16.0 -33.45 L14.95 -33.7 -16.7 -33.7 M-33.15 -37.25 Q-31.7 -40.15 -26.55 -40.25 -29.65 -41.35 -32.75 -43.2 L-35.2 -44.8 Q-30.25 -48.45 -25.0 -46.4 -21.6 -45.1 -18.6 -41.6 L-17.75 -43.1 -17.75 -43.5 -17.5 -43.5 Q-14.9 -47.6 -10.6 -49.95 -6.15 -52.4 -1.0 -52.4 4.1 -52.4 8.55 -49.95 12.85 -47.55 15.45 -43.5 L15.7 -43.5 15.7 -43.1 Q17.5 -40.3 18.1 -36.8 23.65 -35.1 27.1 -30.8 30.55 -26.5 30.55 -21.15 30.55 -16.95 28.35 -13.3 26.2 -9.75 22.5 -7.45 28.45 -1.5 31.8 6.9 35.25 15.55 35.25 25.25 35.25 32.85 33.05 39.95 30.95 46.8 27.05 52.45 L20.4 52.45 20.45 52.35 0.0 52.35 0.0 52.45 -2.45 52.45 -2.45 52.35 -21.05 52.35 -21.0 52.45 -26.95 52.45 Q-30.85 46.8 -32.95 39.95 -35.15 32.85 -35.15 25.25 -35.15 15.8 -31.85 7.3 -28.65 -0.9 -22.95 -6.9 -27.05 -9.1 -29.45 -12.85 -31.95 -16.7 -31.95 -21.15 -31.95 -25.7 -29.4 -29.6 -26.9 -33.4 -22.55 -35.6 L-29.8 -36.0 -33.15 -37.25" fill="#000000" fill-rule="evenodd" stroke="none"/>
    <path d="M11.75 -21.0 Q12.25 -21.2 12.75 -21.0 L13.45 -20.35 13.5 -19.35 12.8 -18.65 Q8.55 -16.7 3.2 -16.1 -7.4 -14.8 -15.05 -20.3 -16.55 -18.3 -18.9 -17.15 L-19.85 -17.05 -20.6 -17.7 -20.65 -18.7 -20.0 -19.4 Q-16.9 -20.95 -15.95 -24.0 L-15.65 -26.9 Q-15.7 -27.45 -15.4 -27.85 -15.05 -28.25 -14.55 -28.35 -14.0 -28.4 -13.6 -28.1 -13.15 -27.75 -13.1 -27.25 -12.8 -25.1 -13.8 -22.55 -6.9 -17.45 3.05 -18.7 8.05 -19.3 11.75 -21.0" fill="#000000" fill-rule="evenodd" stroke="none"/>
  </g>
</svg>
